report_00007_2020-12-11T15:55:29.892Z/largest-contentful-paint/comparison/sorted/11_vs_12.svg

<svg width="640" height="500" xmlns="http://www.w3.org/2000/svg" xmlns:xlink="http://www.w3.org/1999/xlink"><path fill="#fff" d="M0 0h640v500H0z"/><defs><path id="d" stroke-width=".222" stroke="currentColor" d="M-1-1h2v2h-2z"/><path id="b" stroke-width=".222" stroke="currentColor" d="M0-1.33l-1.33 2h2.66z"/><path id="f" stroke-width=".222" stroke="currentColor" d="M0 1.33L1.265.411.782-1.067l-1.564-.009-.483 1.487z"/><use xlink:href="#b" id="c" stroke="currentColor" transform="rotate(180)"/><use xlink:href="#d" id="e" stroke="currentColor" transform="rotate(45)"/><circle id="a" stroke-width=".222" stroke="currentColor" cx="0" cy="0" r="1"/></defs><g fill="none" color="#000" stroke="currentColor"><path stroke="#000" d="M62.2 343.1h9m543.8 0h-9"/><text transform="translate(53.9 347)" stroke="none" fill="#000" font-family="Arial" font-size="12" text-anchor="end"><tspan>2750</tspan></text></g><g fill="none" color="#000" stroke="currentColor"><path stroke="#000" d="M62.2 267.5h9m543.8 0h-9"/><text transform="translate(53.9 271.4)" stroke="none" fill="#000" font-family="Arial" font-size="12" text-anchor="end"><tspan>2800</tspan></text></g><g fill="none" color="#000" stroke="currentColor"><path stroke="#000" d="M62.2 191.9h9m543.8 0h-9"/><text transform="translate(53.9 195.8)" stroke="none" fill="#000" font-family="Arial" font-size="12" text-anchor="end"><tspan>2850</tspan></text></g><g fill="none" color="#000" stroke="currentColor"><path stroke="#000" d="M62.2 116.3h9m543.8 0h-9"/><text transform="translate(53.9 120.2)" stroke="none" fill="#000" font-family="Arial" font-size="12" text-anchor="end"><tspan>2900</tspan></text></g><g fill="none" color="#000" stroke="currentColor"><path stroke="#000" d="M62.2 40.6h9m543.8 0h-9"/><text transform="translate(53.9 44.5)" stroke="none" fill="#000" font-family="Arial" font-size="12" text-anchor="end"><tspan>2950</tspan></text></g><g fill="none" color="#000" stroke="currentColor"><path stroke="#000" d="M62.2 392v-9m0-364.9v9"/><text transform="translate(62.2 413.9)" stroke="none" fill="#000" font-family="Arial" font-size="12" text-anchor="middle"><tspan>0</tspan></text></g><g fill="none" color="#000" stroke="currentColor"><path stroke="#000" d="M118 392v-9m0-364.9v9"/><text transform="translate(118 413.9)" stroke="none" fill="#000" font-family="Arial" font-size="12" text-anchor="middle"><tspan>10</tspan></text></g><g fill="none" color="#000" stroke="currentColor"><path stroke="#000" d="M173.9 392v-9m0-364.9v9"/><text transform="translate(173.9 413.9)" stroke="none" fill="#000" font-family="Arial" font-size="12" text-anchor="middle"><tspan>20</tspan></text></g><g fill="none" color="#000" stroke="currentColor"><path stroke="#000" d="M229.7 392v-9m0-364.9v9"/><text transform="translate(229.7 413.9)" stroke="none" fill="#000" font-family="Arial" font-size="12" text-anchor="middle"><tspan>30</tspan></text></g><g fill="none" color="#000" stroke="currentColor"><path stroke="#000" d="M285.6 392v-9m0-364.9v9"/><text transform="translate(285.6 413.9)" stroke="none" fill="#000" font-family="Arial" font-size="12" text-anchor="middle"><tspan>40</tspan></text></g><g fill="none" color="#000" stroke="currentColor"><path stroke="#000" d="M341.4 392v-9m0-364.9v9"/><text transform="translate(341.4 413.9)" stroke="none" fill="#000" font-family="Arial" font-size="12" text-anchor="middle"><tspan>50</tspan></text></g><g fill="none" color="#000" stroke="currentColor"><path stroke="#000" d="M397.2 392v-9m0-364.9v9"/><text transform="translate(397.2 413.9)" stroke="none" fill="#000" font-family="Arial" font-size="12" text-anchor="middle"><tspan>60</tspan></text></g><g fill="none" color="#000" stroke="currentColor"><path stroke="#000" d="M453.1 392v-9m0-364.9v9"/><text transform="translate(453.1 413.9)" stroke="none" fill="#000" font-family="Arial" font-size="12" text-anchor="middle"><tspan>70</tspan></text></g><g fill="none" color="#000" stroke="currentColor"><path stroke="#000" d="M508.9 392v-9m0-364.9v9"/><text transform="translate(508.9 413.9)" stroke="none" fill="#000" font-family="Arial" font-size="12" text-anchor="middle"><tspan>80</tspan></text></g><g fill="none" color="#000" stroke="currentColor"><path stroke="#000" d="M564.7 392v-9m0-364.9v9"/><text transform="translate(564.7 413.9)" stroke="none" fill="#000" font-family="Arial" font-size="12" text-anchor="middle"><tspan>90</tspan></text></g><path stroke="#000" d="M62.2 18.1V392H615V18.1H62.2z" fill="none" color="#000"/><text transform="translate(512.5 431.9)" stroke="none" fill="#000" font-family="Arial" font-size="12" text-anchor="end" color="#000"><tspan>pages+cached+noexternal+nofonts+nosvg+noimg</tspan></text><path stroke="#9400D3" d="M520.8 428H563M62.2 264.7l5.6-3.1 5.6-.2 5.6-1.9 5.5-1.2h5.6l5.6-.3 5.6-1.1 5.6-2.2 5.6-.2 5.5-.1 5.6-.5 5.6-.4 5.6-2.4 5.6-91.9 5.6-.1 5.5-.8 5.6-2.4 5.6-1 5.6-1.4h5.6l5.6-.2 5.5-.1 5.6-.4 5.6-.9 5.6-.2 5.6-.4h5.6l5.5-.3 5.6-.4 5.6-.3 5.6-.2 5.6-.3 5.6-.1h5.6l5.5-.2 5.6-.2 5.6-.3h5.6l5.6-.2 5.6-.2 5.5-.5 5.6-.1 5.6-.1 5.6-.1h5.6l5.6-.1h5.5l5.6-.4h5.6l5.6-.1 5.6-.1 5.6-.2 5.5-.2 5.6-.1 5.6-.5 5.6-.2 5.6-.6h5.6l5.5-.5h5.6l5.6-.1h5.6l5.6-.1 5.6-.1 5.5-.4h11.2l5.6-.3 5.6-.4 5.6-.7 5.6-.9 5.5-.4 5.6-.4H481l5.6-.2 5.6-.6h5.5l5.6-.2 5.6-.1 5.6-.1 5.6-.9 5.6-.1 5.5-1 5.6-2.3 5.6-1.7 5.6-89 5.6-7.3 5.6-2.4 5.5-5.7h5.6l5.6-.7 5.6-.3 5.6-1.2 5.6-.1h5.5l5.6-.2 5.6-1.1 5.6-.5" fill="none" color="#000"/><text transform="translate(512.5 449.9)" stroke="none" fill="#000" font-family="Arial" font-size="12" text-anchor="end" color="#000"><tspan>pages+cached+noexternal+nofonts+nosvg+noimg+nocss</tspan></text><path stroke="#009E73" d="M520.8 446H563M62.2 384.8l5.6-1 5.6-1 5.6-2.3 5.5-.3h5.6l5.6-.1 5.6-.1 5.6-.8 5.6-.4h5.5l5.6-.5 5.6-.1 5.6-.1h5.6l5.6-.3 5.5-.5 5.6-.2 5.6-.3h5.6l5.6-.2 5.6-.2 5.5-.1 5.6-.3 5.6-.2 5.6-.4 5.6-.1 5.6-.1 5.5-.2 5.6-.2 5.6-.1h5.6l5.6-.1h5.6l5.6-.2h16.7l5.6-.2 5.6-.1h5.6l5.5-.1 5.6-.2 5.6-.3h11.2l5.6-.9 5.5-.2 5.6-.1h5.6l5.6-.1 5.6-.2 5.6-.1 5.5-.1 5.6-.5 5.6-.1 5.6-.1 5.6-.7h5.6l5.5-.7 5.6-.1 5.6-.1 5.6-.1 5.6-.5h5.6l5.5-.2 5.6-.2 5.6-.4 5.6-.3 5.6-.1h5.6l5.6-.1 5.5-.4 5.6-.1 5.6-.4 5.6-.1 5.6-.2 5.6-.8h5.5l5.6-.3 5.6-.5 5.6-1.2h5.6l5.6-.1 5.5-.1 5.6-.3 5.6-.3h5.6l5.6-.2 5.6-1.4 5.5-1.7 5.6-.6 5.6-.6 5.6-6.6 5.6-2.6 5.6-4.1 5.5-76.4 5.6-8.3 5.6-1.3 5.6-1.7" fill="none" color="#000"/><text transform="translate(512.5 467.9)" stroke="none" fill="#000" font-family="Arial" font-size="12" text-anchor="end" color="#000"><tspan>score p10=2500</tspan></text><path stroke="#56B4E9" d="M520.8 464H563" fill="none" color="#000"/><g><text transform="translate(512.5 485.9)" stroke="none" fill="#000" font-family="Arial" font-size="12" text-anchor="end" color="#000"><tspan>score median=4000</tspan></text><path stroke="#E69F00" d="M520.8 482H563" fill="none" color="#000"/></g><g fill="none" color="#000" stroke="currentColor"><path stroke="#000" d="M62.2 18.1V392H615V18.1H62.2z"/></g></svg>

<?xml version="1.0" encoding="utf-8"  standalone="no"?>
<svg 
 width="640" height="500"
 viewBox="0 0 640 500"
 xmlns="http://www.w3.org/2000/svg"
 xmlns:xlink="http://www.w3.org/1999/xlink"
>

<title>Gnuplot</title>
<desc>Produced by GNUPLOT 5.4 patchlevel 0 </desc>

<g id="gnuplot_canvas">

<rect x="0" y="0" width="640" height="500" fill="#ffffff"/>
<defs>

	<circle id='gpDot' r='0.5' stroke-width='0.5' stroke='currentColor'/>
	<path id='gpPt0' stroke-width='0.222' stroke='currentColor' d='M-1,0 h2 M0,-1 v2'/>
	<path id='gpPt1' stroke-width='0.222' stroke='currentColor' d='M-1,-1 L1,1 M1,-1 L-1,1'/>
	<path id='gpPt2' stroke-width='0.222' stroke='currentColor' d='M-1,0 L1,0 M0,-1 L0,1 M-1,-1 L1,1 M-1,1 L1,-1'/>
	<rect id='gpPt3' stroke-width='0.222' stroke='currentColor' x='-1' y='-1' width='2' height='2'/>
	<rect id='gpPt4' stroke-width='0.222' stroke='currentColor' fill='currentColor' x='-1' y='-1' width='2' height='2'/>
	<circle id='gpPt5' stroke-width='0.222' stroke='currentColor' cx='0' cy='0' r='1'/>
	<use xlink:href='#gpPt5' id='gpPt6' fill='currentColor' stroke='none'/>
	<path id='gpPt7' stroke-width='0.222' stroke='currentColor' d='M0,-1.33 L-1.33,0.67 L1.33,0.67 z'/>
	<use xlink:href='#gpPt7' id='gpPt8' fill='currentColor' stroke='none'/>
	<use xlink:href='#gpPt7' id='gpPt9' stroke='currentColor' transform='rotate(180)'/>
	<use xlink:href='#gpPt9' id='gpPt10' fill='currentColor' stroke='none'/>
	<use xlink:href='#gpPt3' id='gpPt11' stroke='currentColor' transform='rotate(45)'/>
	<use xlink:href='#gpPt11' id='gpPt12' fill='currentColor' stroke='none'/>
	<path id='gpPt13' stroke-width='0.222' stroke='currentColor' d='M0,1.330 L1.265,0.411 L0.782,-1.067 L-0.782,-1.076 L-1.265,0.411 z'/>
	<use xlink:href='#gpPt13' id='gpPt14' fill='currentColor' stroke='none'/>
	<filter id='textbox' filterUnits='objectBoundingBox' x='0' y='0' height='1' width='1'>
	  <feFlood flood-color='#FFFFFF' flood-opacity='1' result='bgnd'/>
	  <feComposite in='SourceGraphic' in2='bgnd' operator='atop'/>
	</filter>
	<filter id='greybox' filterUnits='objectBoundingBox' x='0' y='0' height='1' width='1'>
	  <feFlood flood-color='lightgrey' flood-opacity='1' result='grey'/>
	  <feComposite in='SourceGraphic' in2='grey' operator='atop'/>
	</filter>
</defs>
<g fill="none" color="#FFFFFF" stroke="black" stroke-width="1.00" stroke-linecap="butt" stroke-linejoin="miter">
</g>
<g fill="none" color="black" stroke="currentColor" stroke-width="1.00" stroke-linecap="butt" stroke-linejoin="miter">
	<path stroke='black'  d='M62.2,343.1 L71.2,343.1 M615.0,343.1 L606.0,343.1  '/>	<g transform="translate(53.9,347.0)" stroke="none" fill="black" font-family="Arial" font-size="12.00"  text-anchor="end">
		<text><tspan font-family="Arial" > 2750</tspan></text>
	</g>
</g>
<g fill="none" color="black" stroke="currentColor" stroke-width="1.00" stroke-linecap="butt" stroke-linejoin="miter">
	<path stroke='black'  d='M62.2,267.5 L71.2,267.5 M615.0,267.5 L606.0,267.5  '/>	<g transform="translate(53.9,271.4)" stroke="none" fill="black" font-family="Arial" font-size="12.00"  text-anchor="end">
		<text><tspan font-family="Arial" > 2800</tspan></text>
	</g>
</g>
<g fill="none" color="black" stroke="currentColor" stroke-width="1.00" stroke-linecap="butt" stroke-linejoin="miter">
	<path stroke='black'  d='M62.2,191.9 L71.2,191.9 M615.0,191.9 L606.0,191.9  '/>	<g transform="translate(53.9,195.8)" stroke="none" fill="black" font-family="Arial" font-size="12.00"  text-anchor="end">
		<text><tspan font-family="Arial" > 2850</tspan></text>
	</g>
</g>
<g fill="none" color="black" stroke="currentColor" stroke-width="1.00" stroke-linecap="butt" stroke-linejoin="miter">
	<path stroke='black'  d='M62.2,116.3 L71.2,116.3 M615.0,116.3 L606.0,116.3  '/>	<g transform="translate(53.9,120.2)" stroke="none" fill="black" font-family="Arial" font-size="12.00"  text-anchor="end">
		<text><tspan font-family="Arial" > 2900</tspan></text>
	</g>
</g>
<g fill="none" color="black" stroke="currentColor" stroke-width="1.00" stroke-linecap="butt" stroke-linejoin="miter">
	<path stroke='black'  d='M62.2,40.6 L71.2,40.6 M615.0,40.6 L606.0,40.6  '/>	<g transform="translate(53.9,44.5)" stroke="none" fill="black" font-family="Arial" font-size="12.00"  text-anchor="end">
		<text><tspan font-family="Arial" > 2950</tspan></text>
	</g>
</g>
<g fill="none" color="black" stroke="currentColor" stroke-width="1.00" stroke-linecap="butt" stroke-linejoin="miter">
	<path stroke='black'  d='M62.2,392.0 L62.2,383.0 M62.2,18.1 L62.2,27.1  '/>	<g transform="translate(62.2,413.9)" stroke="none" fill="black" font-family="Arial" font-size="12.00"  text-anchor="middle">
		<text><tspan font-family="Arial" > 0</tspan></text>
	</g>
</g>
<g fill="none" color="black" stroke="currentColor" stroke-width="1.00" stroke-linecap="butt" stroke-linejoin="miter">
	<path stroke='black'  d='M118.0,392.0 L118.0,383.0 M118.0,18.1 L118.0,27.1  '/>	<g transform="translate(118.0,413.9)" stroke="none" fill="black" font-family="Arial" font-size="12.00"  text-anchor="middle">
		<text><tspan font-family="Arial" > 10</tspan></text>
	</g>
</g>
<g fill="none" color="black" stroke="currentColor" stroke-width="1.00" stroke-linecap="butt" stroke-linejoin="miter">
	<path stroke='black'  d='M173.9,392.0 L173.9,383.0 M173.9,18.1 L173.9,27.1  '/>	<g transform="translate(173.9,413.9)" stroke="none" fill="black" font-family="Arial" font-size="12.00"  text-anchor="middle">
		<text><tspan font-family="Arial" > 20</tspan></text>
	</g>
</g>
<g fill="none" color="black" stroke="currentColor" stroke-width="1.00" stroke-linecap="butt" stroke-linejoin="miter">
	<path stroke='black'  d='M229.7,392.0 L229.7,383.0 M229.7,18.1 L229.7,27.1  '/>	<g transform="translate(229.7,413.9)" stroke="none" fill="black" font-family="Arial" font-size="12.00"  text-anchor="middle">
		<text><tspan font-family="Arial" > 30</tspan></text>
	</g>
</g>
<g fill="none" color="black" stroke="currentColor" stroke-width="1.00" stroke-linecap="butt" stroke-linejoin="miter">
	<path stroke='black'  d='M285.6,392.0 L285.6,383.0 M285.6,18.1 L285.6,27.1  '/>	<g transform="translate(285.6,413.9)" stroke="none" fill="black" font-family="Arial" font-size="12.00"  text-anchor="middle">
		<text><tspan font-family="Arial" > 40</tspan></text>
	</g>
</g>
<g fill="none" color="black" stroke="currentColor" stroke-width="1.00" stroke-linecap="butt" stroke-linejoin="miter">
	<path stroke='black'  d='M341.4,392.0 L341.4,383.0 M341.4,18.1 L341.4,27.1  '/>	<g transform="translate(341.4,413.9)" stroke="none" fill="black" font-family="Arial" font-size="12.00"  text-anchor="middle">
		<text><tspan font-family="Arial" > 50</tspan></text>
	</g>
</g>
<g fill="none" color="black" stroke="currentColor" stroke-width="1.00" stroke-linecap="butt" stroke-linejoin="miter">
	<path stroke='black'  d='M397.2,392.0 L397.2,383.0 M397.2,18.1 L397.2,27.1  '/>	<g transform="translate(397.2,413.9)" stroke="none" fill="black" font-family="Arial" font-size="12.00"  text-anchor="middle">
		<text><tspan font-family="Arial" > 60</tspan></text>
	</g>
</g>
<g fill="none" color="black" stroke="currentColor" stroke-width="1.00" stroke-linecap="butt" stroke-linejoin="miter">
	<path stroke='black'  d='M453.1,392.0 L453.1,383.0 M453.1,18.1 L453.1,27.1  '/>	<g transform="translate(453.1,413.9)" stroke="none" fill="black" font-family="Arial" font-size="12.00"  text-anchor="middle">
		<text><tspan font-family="Arial" > 70</tspan></text>
	</g>
</g>
<g fill="none" color="black" stroke="currentColor" stroke-width="1.00" stroke-linecap="butt" stroke-linejoin="miter">
	<path stroke='black'  d='M508.9,392.0 L508.9,383.0 M508.9,18.1 L508.9,27.1  '/>	<g transform="translate(508.9,413.9)" stroke="none" fill="black" font-family="Arial" font-size="12.00"  text-anchor="middle">
		<text><tspan font-family="Arial" > 80</tspan></text>
	</g>
</g>
<g fill="none" color="black" stroke="currentColor" stroke-width="1.00" stroke-linecap="butt" stroke-linejoin="miter">
	<path stroke='black'  d='M564.7,392.0 L564.7,383.0 M564.7,18.1 L564.7,27.1  '/>	<g transform="translate(564.7,413.9)" stroke="none" fill="black" font-family="Arial" font-size="12.00"  text-anchor="middle">
		<text><tspan font-family="Arial" > 90</tspan></text>
	</g>
</g>
<g fill="none" color="black" stroke="currentColor" stroke-width="1.00" stroke-linecap="butt" stroke-linejoin="miter">
</g>
<g fill="none" color="black" stroke="currentColor" stroke-width="1.00" stroke-linecap="butt" stroke-linejoin="miter">
	<path stroke='black'  d='M62.2,18.1 L62.2,392.0 L615.0,392.0 L615.0,18.1 L62.2,18.1 Z  '/></g>
<g fill="none" color="black" stroke="currentColor" stroke-width="1.00" stroke-linecap="butt" stroke-linejoin="miter">
</g>
	<g id="gnuplot_plot_1" ><title>pages+cached+noexternal+nofonts+nosvg+noimg</title>
<g fill="none" color="black" stroke="currentColor" stroke-width="1.00" stroke-linecap="butt" stroke-linejoin="miter">
	<g transform="translate(512.5,431.9)" stroke="none" fill="black" font-family="Arial" font-size="12.00"  text-anchor="end">
		<text><tspan font-family="Arial" >pages+cached+noexternal+nofonts+nosvg+noimg</tspan></text>
	</g>
</g>
<g fill="none" color="black" stroke="currentColor" stroke-width="1.00" stroke-linecap="butt" stroke-linejoin="miter">
	<path stroke='rgb(148,   0, 211)'  d='M520.8,428.0 L563.0,428.0 M62.2,264.7 L67.8,261.6 L73.4,261.4 L79.0,259.5 L84.5,258.3 L90.1,258.3
		L95.7,258.0 L101.3,256.9 L106.9,254.7 L112.5,254.5 L118.0,254.4 L123.6,253.9 L129.2,253.5 L134.8,251.1
		L140.4,159.2 L146.0,159.1 L151.5,158.3 L157.1,155.9 L162.7,154.9 L168.3,153.5 L173.9,153.5 L179.5,153.3
		L185.0,153.2 L190.6,152.8 L196.2,151.9 L201.8,151.7 L207.4,151.3 L213.0,151.3 L218.5,151.0 L224.1,150.6
		L229.7,150.3 L235.3,150.1 L240.9,149.8 L246.5,149.7 L252.1,149.7 L257.6,149.5 L263.2,149.3 L268.8,149.0
		L274.4,149.0 L280.0,148.8 L285.6,148.6 L291.1,148.1 L296.7,148.0 L302.3,147.9 L307.9,147.8 L313.5,147.8
		L319.1,147.7 L324.6,147.7 L330.2,147.3 L335.8,147.3 L341.4,147.2 L347.0,147.1 L352.6,146.9 L358.1,146.7
		L363.7,146.6 L369.3,146.1 L374.9,145.9 L380.5,145.3 L386.1,145.3 L391.6,144.8 L397.2,144.8 L402.8,144.7
		L408.4,144.7 L414.0,144.6 L419.6,144.5 L425.1,144.1 L430.7,144.1 L436.3,144.1 L441.9,143.8 L447.5,143.4
		L453.1,142.7 L458.7,141.8 L464.2,141.4 L469.8,141.0 L475.4,141.0 L481.0,141.0 L486.6,140.8 L492.2,140.2
		L497.7,140.2 L503.3,140.0 L508.9,139.9 L514.5,139.8 L520.1,138.9 L525.7,138.8 L531.2,137.8 L536.8,135.5
		L542.4,133.8 L548.0,44.8 L553.6,37.5 L559.2,35.1 L564.7,29.4 L570.3,29.4 L575.9,28.7 L581.5,28.4
		L587.1,27.2 L592.7,27.1 L598.2,27.1 L603.8,26.9 L609.4,25.8 L615.0,25.3  '/></g>
	</g>
	<g id="gnuplot_plot_2" ><title>pages+cached+noexternal+nofonts+nosvg+noimg+nocss</title>
<g fill="none" color="black" stroke="currentColor" stroke-width="1.00" stroke-linecap="butt" stroke-linejoin="miter">
	<g transform="translate(512.5,449.9)" stroke="none" fill="black" font-family="Arial" font-size="12.00"  text-anchor="end">
		<text><tspan font-family="Arial" >pages+cached+noexternal+nofonts+nosvg+noimg+nocss</tspan></text>
	</g>
</g>
<g fill="none" color="black" stroke="currentColor" stroke-width="1.00" stroke-linecap="butt" stroke-linejoin="miter">
	<path stroke='rgb(  0, 158, 115)'  d='M520.8,446.0 L563.0,446.0 M62.2,384.8 L67.8,383.8 L73.4,382.8 L79.0,380.5 L84.5,380.2 L90.1,380.2
		L95.7,380.1 L101.3,380.0 L106.9,379.2 L112.5,378.8 L118.0,378.8 L123.6,378.3 L129.2,378.2 L134.8,378.1
		L140.4,378.1 L146.0,377.8 L151.5,377.3 L157.1,377.1 L162.7,376.8 L168.3,376.8 L173.9,376.6 L179.5,376.4
		L185.0,376.3 L190.6,376.0 L196.2,375.8 L201.8,375.4 L207.4,375.3 L213.0,375.2 L218.5,375.0 L224.1,374.8
		L229.7,374.7 L235.3,374.7 L240.9,374.6 L246.5,374.6 L252.1,374.4 L257.6,374.4 L263.2,374.4 L268.8,374.4
		L274.4,374.2 L280.0,374.1 L285.6,374.1 L291.1,374.0 L296.7,373.8 L302.3,373.5 L307.9,373.5 L313.5,373.5
		L319.1,372.6 L324.6,372.4 L330.2,372.3 L335.8,372.3 L341.4,372.2 L347.0,372.0 L352.6,371.9 L358.1,371.8
		L363.7,371.3 L369.3,371.2 L374.9,371.1 L380.5,370.4 L386.1,370.4 L391.6,369.7 L397.2,369.6 L402.8,369.5
		L408.4,369.4 L414.0,368.9 L419.6,368.9 L425.1,368.7 L430.7,368.5 L436.3,368.1 L441.9,367.8 L447.5,367.7
		L453.1,367.7 L458.7,367.6 L464.2,367.2 L469.8,367.1 L475.4,366.7 L481.0,366.6 L486.6,366.4 L492.2,365.6
		L497.7,365.6 L503.3,365.3 L508.9,364.8 L514.5,363.6 L520.1,363.6 L525.7,363.5 L531.2,363.4 L536.8,363.1
		L542.4,362.8 L548.0,362.8 L553.6,362.6 L559.2,361.2 L564.7,359.5 L570.3,358.9 L575.9,358.3 L581.5,351.7
		L587.1,349.1 L592.7,345.0 L598.2,268.6 L603.8,260.3 L609.4,259.0 L615.0,257.3  '/></g>
	</g>
	<g id="gnuplot_plot_3" ><title>score p10=2500</title>
<g fill="none" color="black" stroke="currentColor" stroke-width="1.00" stroke-linecap="butt" stroke-linejoin="miter">
	<g transform="translate(512.5,467.9)" stroke="none" fill="black" font-family="Arial" font-size="12.00"  text-anchor="end">
		<text><tspan font-family="Arial" >score p10=2500</tspan></text>
	</g>
</g>
<g fill="none" color="black" stroke="currentColor" stroke-width="1.00" stroke-linecap="butt" stroke-linejoin="miter">
	<path stroke='rgb( 86, 180, 233)'  d='M520.8,464.0 L563.0,464.0  '/></g>
	</g>
	<g id="gnuplot_plot_4" ><title>score median=4000</title>
<g fill="none" color="black" stroke="currentColor" stroke-width="1.00" stroke-linecap="butt" stroke-linejoin="miter">
	<g transform="translate(512.5,485.9)" stroke="none" fill="black" font-family="Arial" font-size="12.00"  text-anchor="end">
		<text><tspan font-family="Arial" >score median=4000</tspan></text>
	</g>
</g>
<g fill="none" color="black" stroke="currentColor" stroke-width="1.00" stroke-linecap="butt" stroke-linejoin="miter">
	<path stroke='rgb(230, 159,   0)'  d='M520.8,482.0 L563.0,482.0  '/></g>
	</g>
<g fill="none" color="#FFFFFF" stroke="rgb(230, 159,   0)" stroke-width="2.00" stroke-linecap="butt" stroke-linejoin="miter">
</g>
<g fill="none" color="black" stroke="currentColor" stroke-width="2.00" stroke-linecap="butt" stroke-linejoin="miter">
</g>
<g fill="none" color="black" stroke="black" stroke-width="1.00" stroke-linecap="butt" stroke-linejoin="miter">
</g>
<g fill="none" color="black" stroke="currentColor" stroke-width="1.00" stroke-linecap="butt" stroke-linejoin="miter">
	<path stroke='black'  d='M62.2,18.1 L62.2,392.0 L615.0,392.0 L615.0,18.1 L62.2,18.1 Z  '/></g>
<g fill="none" color="black" stroke="currentColor" stroke-width="1.00" stroke-linecap="butt" stroke-linejoin="miter">
</g>
</g>
</svg>
